X:1
T:[ID 2-50a]
T:[ID 2-50a]
T:Bezeichnung standardisiert: Menuett Men\"uet 9.
T:Urheber unbekannt Datum in der hier transkribierten schriftlichen Quelle: 1767
C:Urheber unbekannt
C:Datum in der hier transkribierten schriftlichen Quelle: 1767
L:1/8
M:3/4
K:D
V:1 treble 
V:1
 d4 (3cde | d2 E2 F2 | F4 (3GAB | A2 E2 F2 | DFAdfd | c2 B,2 C2 | (3DEF E2 D2 |{D} C6 :: F4 (3FGA | %9
 GB=cd B2 | G4 (3GAB | Acde c2 | B4 (3cde | d2 A2 B2 | (3GFE D2 C2 | D6 :| %16

